dist/img/icon/facebook.svg

<svg width="20" height="20" viewBox="0 0 20 20" fill="none" xmlns="http://www.w3.org/2000/svg">
<path opacity="0.5" d="M19.7633 9.93374C19.7611 8.03499 19.2189 6.17654 18.2008 4.57803C17.1826 2.97952 15.731 1.70776 14.0176 0.913033C12.3042 0.11831 10.4005 -0.166152 8.53161 0.0932594C6.66268 0.35267 4.90659 1.14511 3.47088 2.37694C2.03516 3.60877 0.979835 5.22849 0.429603 7.0447C-0.120629 8.86091 -0.142766 10.7977 0.365812 12.6261C0.87439 14.4546 1.89242 16.0983 3.29961 17.3631C4.70679 18.6278 6.4443 19.4607 8.30681 19.7633V12.8112H5.79922V9.93374H8.30681V7.75695C8.30681 5.26725 9.78703 3.88635 12.0445 3.88635C12.7851 3.89682 13.5239 3.96276 14.2547 4.08362V6.53251H13.0043C12.792 6.50429 12.576 6.52434 12.3724 6.59118C12.1688 6.65803 11.9826 6.76996 11.8277 6.91876C11.6727 7.06755 11.5528 7.24942 11.4769 7.45098C11.401 7.65254 11.3709 7.86868 11.3889 8.08347V9.93374H14.1331L13.6802 12.8112H11.3957V19.7633C13.7253 19.397 15.8485 18.2054 17.3826 16.4033C18.9167 14.6011 19.761 12.3068 19.7633 9.93374Z" fill="white"/>
</svg>

<svg width="20" height="20" viewBox="0 0 20 20" fill="none" xmlns="http://www.w3.org/2000/svg"><path opacity=".5" d="M19.763 9.934a9.993 9.993 0 00-1.562-5.356A9.901 9.901 0 0014.018.913 9.825 9.825 0 003.47 2.377 9.95 9.95 0 00.43 7.045a10.006 10.006 0 00-.064 5.581A9.955 9.955 0 003.3 17.363a9.855 9.855 0 005.007 2.4v-6.952H5.799V9.934h2.508V7.757c0-2.49 1.48-3.87 3.737-3.87.741.01 1.48.076 2.21.197v2.449h-1.25a1.424 1.424 0 00-1.176.386 1.442 1.442 0 00-.44 1.164v1.85h2.745l-.453 2.878h-2.284v6.952a9.88 9.88 0 005.987-3.36 9.997 9.997 0 002.38-6.47z" fill="#fff"/></svg>
